!!!!SEGMENT: pl-kk--kk-i-7--076_anonim--confitebor-tibi-domine.krn
!!!cenid: 16xx:915
!!!COM: Anonim
!!!COM-rismID: pe30004985
!!!CDT:
!!!CNT:
!!!OTL: Confitebor tibi Domine
!!!PDT:
!!!AGN: Sacred
!!!SMS-siglum: PL-Kk
!!!SMS-shelfmark: Kk.I.7
!!!SMS-shelfwork: 076 W
!!!SMS-variant:
!!!SMS-altvar:
!!!NIFC-rismSourceID: 300258153
!!!NIFC-islandoraID: pl-kk:1956
!!!URL-pdf-islandora: https://repozytorium.nifc.pl/islandora/object/pl-kk%3A1956/datastream/PDF/view
!!!URL-scan: https://polish.musicsources.pl/pl/lokalizacje/galeria/rekopisy/6140 @EN{Scan on Polish Music Sources Website} @PL{Skany w portalu Dziedzictwo Muzyki Polskiej w otwartym dostępie}
!!!ONB-nifc: UWAGA: C (skan 0067, s. 126), A (brak), T (0230, s.123), B (0316-0317, s.119-120). Następny utwór: Veni sponsa Christi
!!!AIN: 1 alto 1 bass 1 soprn 1 tenor
!!!key:
**kern	**text	**kern	**text	**kern	**kern	**text
*part4	*part4	*part3	*part3	*part2	*part1	*part1
*staff4	*staff4	*staff3	*staff3	*staff2	*staff1	*staff1
*Ibass	*	*Itenor	*	*Ialto	*Isoprn	*
*I"BASSVS.	*	*I"TENOR.	*	*I"ALTVS.	*I"CANTVS.	*
*I'B	*	*I'T	*	*I'A	*I'C	*
*clefF4	*	*clefC4	*	*clefC3	*clefC1	*
*k[b-]	*	*k[b-]	*	*k[b-]	*k[b-]	*
*g:dor	*	*g:dor	*	*g:dor	*g:dor	*
*M2/1	*	*M2/1	*	*M2/1	*M2/1	*
*met(C|)	*	*met(C|)	*	*met(C|)	*met(C|)	*
=1-	=1-	=1-	=1-	=1-	=1-	=1-
!LO:TX:t=P:problem= Inicjał "C" na pięciolinii przed kluczem	!	!LO:TX:t=P:problem= Inicjał "C" na pięciolinii przed kluczem	!	!LO:TX:t=P:problem=brak głosu w źródle	!LO:TX:t=P:problem= Inicjał "C" na pięciolinii przed kluczem	!
!	!	!	!	!	!LO:TX:t=P:problem=all\right&colon; global	!
1.GG	Con-	1.B-	Con-	0ryy	2r	.
.	.	.	.	.	1g\	Con-
.	.	.	.	.	.	.
*	*	*2\right	*	*	*	*
!LO:TX:t=P:problem=kreska pseudotaktowa	!	!	!	!	!LO:TX:t=P:problem=kreska pseudotaktowa	!
2GG/	-fi-	2B-\	-fi-	.	2g/	-fi-
=2-	=2-	=2-	=2-	=2-	=2-	=2-
1D	-te-	1A	-te-	0ryy	1f#X	-te-
!	!	!LO:TX:t=P:problem=kreska pseudotaktowa	!	!	!LO:TX:t=P:problem=kreska pseudotaktowa	!
!	!	!	!	!	!LO:TX:a:t=P:problem=# above	!
1D	-bor	1A	-bor	.	1f#X	-bor
=3-	=3-	=3-	=3-	=3-	=3-	=3-
!	!	!LO:N:acc=#	!	!	!	!
2GG/	ti-	2Bn\	ti-	0ryy	2.g/	ti-
!LO:TX:t=P:problem=kreska pseudotaktowa	!	!	!	!	!	!
2C/	-bi	2c\	-bi	.	.	.
.	.	.	.	.	4a\	-bi
4BB-/	Do-	1.d	Do-	.	1.b-	Do-
4C/	.	.	.	.	.	.
4D/	.	.	.	.	.	.
4E\	.	.	.	.	.	.
=4-	=4-	=4-	=4-	=4-	=4-	=4-
1.F	.	.	.	0ryy	.	.
.	.	4c\	.	.	4a\	.
!	!	!	!	!	!LO:TX:t=P:problem=kreska pseudotaktowa	!
.	.	4B\	.	.	4g\	.
*	*	*	*	*	*2\right	*
.	.	2.c\	-mi-	.	2a\	-mi-
*2\right	*	*	*	*	*	*
2F\	-mi-	.	.	.	2a\	-ne
.	.	4c\	-ne	.	.	.
=5-	=5-	=5-	=5-	=5-	=5-	=5-
!LO:TX:t=P:problem=kreska pseudotaktowa	!	!LO:TX:t=P:problem=kreska pseudotaktowa	!	!	!LO:TX:t=P:problem=kreska pseudotaktowa	!
1BB-	-ne	1B	.	0ryy	1b-	.
2r	.	2r	.	.	2r	.
2BB-/	in	2d\	in	.	2b-\	in
=6-	=6-	=6-	=6-	=6-	=6-	=6-
2.F\	to-	2.c\	to-	0ryy	2.a\	to-
!LO:TX:t=P:problem=kreska pseudotaktowa	!	!LO:TX:t=P:problem=kreska pseudotaktowa	!	!	!LO:TX:t=P:problem=kreska pseudotaktowa	!
4F\	-to	4c\	-to	.	4a\	-to
2F\	cor-	2c\	cor-	.	2a\	cor-
2G\	-de	2B-y\	-de	.	2g/	-de
=7-	=7-	=7-	=7-	=7-	=7-	=7-
1E-X	me-	1G	me-	0ryy	1g	me-
!LO:TX:t=P:problem=kreska pseudotaktowa	!	!LO:TX:t=P:problem=kreska pseudotaktowa	!	!	!LO:TX:t=P:problem=kreska pseudotaktowa	!
0D	-o	1A	-o	.	1f#X	-o
=8-	=8-	=8-	=8-	=8-	=8-	=8-
.	.	2r	.	0ryy	2r	.
.	.	2d\	Re-	.	2a\	re-
00r	.	2.G/	-tri-	.	2.b-\	-tri-
!	!	!LO:TX:t=P:problem=kreska pseudotaktowa	!	!	!LO:TX:t=P:problem=kreska pseudotaktowa	!
.	.	4G/	-bu-	.	4b-\	-bu-
=9-	=9-	=9-	=9-	=9-	=9-	=9-
.	.	2d\	-e	0ryy	2a\	-e
.	.	1B-\	ſer-	.	1dd\	ſer-
.	.	.	.	.	.	.
!	!	!LO:TX:t=P:problem=kreska pseudotaktowa	!	!	!LO:TX:t=P:problem=kreska pseudotaktowa	!
.	.	2F/	-uo	.	2cc\	-uo
=10-	=10-	=10-	=10-	=10-	=10-	=10-
*	*	*	*	*	*lig	*
.	.	4G/	tu-	0ryy	1b-	tu-
.	.	4A/	.	.	.	.
.	.	4B-\	.	.	.	.
*	*	*custos:d	*	*	*	*
!	!	!LO:TX:t=P:problem=kreska pseudotaktowa	!	!	!	!
.	.	4c\	.	.	.	.
!	!	!LO:LB:g=original	!	!	!	!
1r	.	1d	-o	.	1a	.
*	*	*	*	*	*Xlig	*
=11-	=11-	=11-	=11-	=11-	=11-	=11-
*	*	*	*	*	*custos:g	*
!	!	!	!	!	!LO:TX:t=P:problem=kreska pseudotaktowa	!
2r	.	2G/	.	0ryy	0g	-o
*	*	*	*ij	*	*	*
!LO:TX:t=P:problem=kreska pseudotaktowa	!	!LO:TX:t=P:problem=kreska pseudotaktowa	!	!	!	!
!	!	!LO:N:acc=#	!	!	!	!
!	!	!LO:TX:a:t=P:problem=# above	!	!	!	!
2G\	Re-	2Bn\	Re-	.	.	.
2.C/	-tri-	2.c\	-tri-	.	.	.
4C/	-bu-	4c\	-bu-	.	.	.
!	!	!	!	!	!LO:LB:g=original	!
=12-	=12-	=12-	=12-	=12-	=12-	=12-
!	!	!LO:N:acc=#	!	!	!	!
2G\	-o	2Bn\	-e	0ryy	0r	.
1E-X\	ſer-	4G/	fer-	.	.	.
!	!	!LO:TX:t=P:problem=kreska pseudotaktowa	!	!	!	!
.	.	4A/	.	.	.	.
.	.	4B#y\	.	.	.	.
.	.	4c\	.	.	.	.
!LO:TX:t=P:problem=kreska pseudotaktowa	!	!	!	!	!	!
2BB-/	-uo	2d\	-uo	.	.	.
=13-	=13-	=13-	=13-	=13-	=13-	=13-
!	!	!	!	!	!LO:TX:t=P:problem=kreska pseudotaktowa	!
4C/	tu-	2c\	.	0ryy	1r	.
4D/	.	.	.	.	.	.
4E-X\	.	1c\	tu-	.	.	.
*custos:G	*	*	*	*	*	*
!LO:TX:t=P:problem=kreska pseudotaktowa	!	!	!	!	!	!
4F\	.	.	.	.	.	.
!LO:LB:g=original	!	!	!	!	!	!
1G	.	.	.	.	2r	.
!	!	!LO:TX:t=P:problem=kreska pseudotaktowa	!	!	!	!
!	!	!LO:N:acc=#	!	!	!	!
!	!	!LO:TX:a:t=P:problem=# above	!	!	!	!
.	.	2Bn\	.	.	1g\	Vt
=14-	=14-	=14-	=14-	=14-	=14-	=14-
2C,/	-o	2c\	-o	0ryy	.	.
*	*	*	*Xij	*	*	*
!LO:TX:t=P:problem=kreska pseudotaktowa	!	!	!	!	!	!
2C/	Vt	2G/	Vt	.	2.cc\	Vi-
2.F\	Vi-	4A/	Vi-	.	.	.
.	.	4G/	.	.	4b-\	.
.	.	4F/	.	.	4a\	.
!	!	!LO:TX:t=P:problem=kreska pseudotaktowa	!	!	!LO:TX:t=P:problem=kreska pseudotaktowa	!
4Eny\	.	4G/	.	.	4g/	.
=15-	=15-	=15-	=15-	=15-	=15-	=15-
4D/	.	2A/	.	0ryy	1.fny	.
4C/	.	.	.	.	.	.
4BB-/	.	2.B-y\	.	.	.	.
!LO:TX:t=P:problem=kreska pseudotaktowa	!	!	!	!	!	!
4AA/	.	.	.	.	.	.
1GG	.	.	.	.	.	.
.	.	4A/	.	.	.	.
!	!	!LO:TX:t=P:problem=kreska pseudotaktowa	!	!	!	!
.	.	2G/	.	.	2e/	.
=16-	=16-	=16-	=16-	=16-	=16-	=16-
!LO:TX:t=P:problem=kreska pseudotaktowa	!	!	!	!	!LO:TX:t=P:problem=kreska pseudotaktowa	!
1FF	-uam,	2C/	-uam;	0ryy	1f	-uam
.	.	1c\	et	.	.	.
1.F	et	.	.	.	1.a	et
!	!	!LO:TX:t=P:problem=kreska pseudotaktowa	!	!	!	!
.	.	2A/	cuſ-	.	.	.
=17-	=17-	=17-	=17-	=17-	=17-	=17-
.	.	2.d\	-to-	0ryy	.	.
2D/	cu-	.	.	.	2a\	cu-
.	.	4d\	-di-	.	.	.
2.G\	-ſto-	1.d	-am	.	2.b-\	-ſto-
!LO:TX:t=P:problem=kreska pseudotaktowa	!	!	!	!	!LO:TX:t=P:problem=kreska pseudotaktowa	!
4G\	-di-	.	.	.	4b-\	-di-
=18-	=18-	=18-	=18-	=18-	=18-	=18-
2G\	-am	.	.	0ryy	2b-\	-am
!	!	!LO:TX:t=P:problem=kreska pseudotaktowa	!	!	!	!
2D/	ſer-	2d\	ſer-	.	2a\	ſer-
2E-X\	-mo-	2B-\	-mo-	.	2g/	-mo-
!	!	!	!	!	!LO:TX:t=P:problem=kreska pseudotaktowa	!
2BB-/	-nes	2B-\	-nes	.	2f/	-nes
=19-	=19-	=19-	=19-	=19-	=19-	=19-
1C	tu-	2G/	.	0ryy	1e-X	.
.	.	4.A/	tu-	.	.	.
*	*	*custos:F#	*	*	*	*
!	!	!LO:TX:t=P:problem=kreska pseudotaktowa	!	!	!	!
.	.	8G/	.	.	.	.
!	!	!LO:LB:g=original	!	!	!	!
!LO:TX:t=P:problem=kreska pseudotaktowa	!	!	!	!	!	!
0D	.	2F#X/	.	.	0d	tu-
.	.	1G/	.	.	.	.
=20-	=20-	=20-	=20-	=20-	=20-	=20-
.	.	.	.	0ryy	.	.
!	!	!LO:TX:t=P:problem=kreska pseudotaktowa	!	!	!	!
.	.	2F#X/	.	.	.	.
!LO:TX:t=P:problem=kreska pseudotaktowa	!	!	!	!	!	!
1GG,	-os	2G/	-os	.	1d	-os
*	*ij	*	*ij	*	*	*
.	.	1G/	et	.	.	.
=21-	=21-	=21-	=21-	=21-	=21-	=21-
!	!	!	!	!	!LO:N:acc=#	!
1.C	et	.	.	0ryy	1.en	et
!	!	!LO:TX:t=P:problem=kreska pseudotaktowa	!	!	!	!
.	.	2E/	cu-	.	.	.
.	.	2.A/	-ſto-	.	.	.
!	!	!	!	!	!LO:TX:t=P:problem=kreska pseudotaktowa	!
2AA/	cu-	.	.	.	2e#y/	cu-
.	.	4A/	-di-	.	.	.
=22-	=22-	=22-	=22-	=22-	=22-	=22-
2.D/	-ſto-	1.A	-am	0ryy	2.f/	-ſto-
!LO:TX:t=P:problem=kreska pseudotaktowa	!	!	!	!	!	!
4D/	-di-	.	.	.	4f/	-di-
2D/	-am	.	.	.	2f/	-am
!	!	!LO:TX:t=P:problem=kreska pseudotaktowa	!	!	!LO:TX:t=P:problem=kreska pseudotaktowa	!
2AA/	ſer-	2A/	ſer-	.	2eny/	ſer-
=23-	=23-	=23-	=23-	=23-	=23-	=23-
2BB-/	-mo-	4Fny/	-mo-	0ryy	2.d/	-mo-
.	.	4F/	-nes	.	.	.
!LO:TX:t=P:problem=kreska pseudotaktowa	!	!	!	!	!	!
2GG/	-nes	1G/	tu-	.	.	.
.	.	.	.	.	4e/	-nes
0AA	tu-	.	.	.	2c#X/	tu-
!	!	!LO:TX:t=P:problem=kreska pseudotaktowa	!	!	!	!
.	.	2F/	.	.	1d/	.
=24-	=24-	=24-	=24-	=24-	=24-	=24-
.	.	1E	.	0ryy	.	.
!	!	!	!	!	!LO:TX:a:t=P:problem=# above	!
.	.	.	.	.	2c#X/	.
!LO:TX:t=P:problem=kreska pseudotaktowa	!	!	!	!	!LO:TX:t=P:problem=kreska pseudotaktowa	!
1D	-os	2D/	-os	.	1d	-os
*	*Xij	*	*Xij	*	*	*
!	!	!LO:TX:t=P:problem=kreska pseudotaktowa	!	!	!	!
.	.	2d\	Vi-	.	.	.
=25-	=25-	=25-	=25-	=25-	=25-	=25-
*	*	*	*	*	*custos:g	*
2r	.	2c\	-ui-	0ryy	1r	.
*custos:F	*	*	*	*	*	*
!LO:TX:t=P:problem=kreska pseudotaktowa	!	!	!	!	!	!
2G\	Vi-	4B-\	-fi-	.	.	.
.	.	4B-\	-ca	.	.	.
!LO:LB:g=original	!	!	!	!	!LO:LB:g=original	!
2F\	-ui-	2A/	me	.	2r	.
!	!	!LO:TX:t=P:problem=kreska pseudotaktowa	!	!	!	!
4Eny\	-fi-	2G/	ſe-	.	4r	.
!LO:TX:t=P:problem=kreska pseudotaktowa	!	!	!	!	!LO:TX:t=P:problem=kreska pseudotaktowa	!
4E\	-ca	.	.	.	4g/	Vi-
=26-	=26-	=26-	=26-	=26-	=26-	=26-
2.D/	me	2.A/	-cun-	0ryy	2f/	-ui-
.	.	.	.	.	4f/	-fi-
!LO:TX:t=P:problem=kreska pseudotaktowa	!	!	!	!	!LO:TX:t=P:problem=kreska pseudotaktowa	!
!	!	!LO:N:acc=#	!	!	!	!
!	!	!LO:TX:a:t=P:problem=# above	!	!	!	!
4D/	ſe-	4Bn\	-du(m)	.	4f/	-ca
!	!	!LO:TX:t=P:problem=kreska pseudotaktowa	!	!	!	!
2.E\	-cun-	1c	Ver-	.	2e/	me
.	.	.	.	.	4r	.
!	!	!	!	!	!LO:TX:t=P:problem=kreska pseudotaktowa	!
4E\	-dum	.	.	.	4g/	ſe-
=27-	=27-	=27-	=27-	=27-	=27-	=27-
2F\	Ver-	2c\	-bu(m)	0ryy	2.a\	-cun-
!LO:TX:t=P:problem=kreska pseudotaktowa	!	!	!	!	!	!
2F\	-bum	1d\	tu-	.	.	.
.	.	.	.	.	4a\	-dum
2G\	tu-	.	.	.	4b-\	Ver-
.	.	.	.	.	4cc\	-bum
!	!	!LO:TX:t=P:problem=kreska pseudotaktowa	!	!	!	!
2G\	-u(m)	2B-y\	-u(m)	.	1dd\	tu-
=28-	=28-	=28-	=28-	=28-	=28-	=28-
2.E\	Do-	2r	.	0ryy	.	.
!	!	!	!	!	!LO:TX:t=P:problem=kreska pseudotaktowa	!
.	.	2G/	ſe-	.	2cc#X\	.
!LO:TX:t=P:problem=kreska pseudotaktowa	!	!	!	!	!	!
4E\	-mi-	.	.	.	.	.
2D/	-ne	2.A/	-cun-	.	2dd\	-um
4D/	Ver-	.	.	.	2.d/	Do-
!LO:TX:t=P:problem=kreska pseudotaktowa	!	!LO:TX:t=P:problem=kreska pseudotaktowa	!	!	!	!
4D/	-bu(m)	4A/	-du(m)	.	.	.
=29-	=29-	=29-	=29-	=29-	=29-	=29-
!	!	!LO:N:acc=#	!	!	!	!
2GG/	tu-	2Bn\	Ver-	0ryy	.	.
.	.	.	.	.	8e/L	.
.	.	.	.	.	8f/J	.
*	*	*custos:c	*	*	*	*
!	!	!LO:TX:t=P:problem=kreska pseudotaktowa	!	!	!LO:TX:t=P::problem=kreska pseudotaktowa&colon;między nutą a kropką	!
!	!	!LO:N:acc=#	!	!	!	!
!	!	!LO:TX:a:t=P:problem=# above	!	!	!	!
2GG/	-u(m)	2Bn\	-bu(m)	.	2.g/	.
!	!	!LO:LB:g=original	!	!	!	!
2.C/	Do-	4c\	tu-	.	.	.
.	.	4c\	-u(m)	.	4f/	.
!	!	!	!	!	!LO:TX:t=P:problem=kreska pseudotaktowa	!
.	.	1G/	Do-	.	2e/	.
!LO:TX:t=P:problem=kreska pseudotaktowa	!	!	!	!	!	!
4BB-/	.	.	.	.	.	.
=30-	=30-	=30-	=30-	=30-	=30-	=30-
2.AA/	.	.	.	0ryy	2.a\	.
!	!	!LO:TX:t=P:problem=kreska pseudotaktowa	!	!	!	!
.	.	2F#X/	-mi-	.	.	.
4AA/	-mi-	.	.	.	4a\	-mi-
!LO:TX:t=P:problem=kreska pseudotaktowa	!	!	!	!	!	!
1GG	-ne	2G,/	-ne	.	2d/	-ne
!	!	!	!	!	!LO:TX:t=P:problem=kreska pseudotaktowa	!
.	.	2B-y\	Vi-	.	2dd\	Vi-
=31-	=31-	=31-	=31-	=31-	=31-	=31-
!LO:TX:a:t=7.	!	!	!	!	!	!
00r	.	2A/	-ui-	0ryy	2ccny\	-ui-
.	.	4G/	-fi-	.	4b-\	-fi-
!	!	!LO:TX:t=P:problem=kreska pseudotaktowa	!	!	!	!
.	.	4G/	-ca	.	4b-\	-ca
!	!	!	!	!	!LO:TX:t=P:problem=kreska pseudotaktowa	!
.	.	2d\	me	.	1a	me
.	.	2A/	ſe-	.	.	.
=32-	=32-	=32-	=32-	=32-	=32-	=32-
.	.	2.B-\	-cu(n)-	0ryy	4r	.
.	.	.	.	.	4f/	ſe-
!	!	!	!	!	!LO:TX:t=P::problem=kreska pseudotaktowa&colon;między nutą a kropką	!
.	.	.	.	.	2.g/	-cun-
!	!	!LO:TX:t=P:problem=kreska pseudotaktowa	!	!	!	!
.	.	4B-\	-du(m)	.	.	.
.	.	2.c\	Ver-	.	.	.
.	.	.	.	.	4g/	-du(m)
.	.	.	.	.	2.a\	Ver-
.	.	4c\	-bu(m)	.	.	.
=33-	=33-	=33-	=33-	=33-	=33-	=33-
0r	.	1.d	tu-	0ryy	.	.
*	*	*	*	*	*custos:b-	*
.	.	.	.	.	4a\	-bum
!	!	!	!	!	!LO:LB:g=original	!
!	!	!	!	!	!LO:TX:t=P::problem=kreska pseudotaktowa&colon;między nutą a kropką	!
.	.	.	.	.	2.b-\	tu-
.	.	.	.	.	.	.
.	.	.	.	.	4a\	-um
!	!	!LO:TX:t=P:problem=kreska pseudotaktowa	!	!	!	!
.	.	2c\	-u(m)	.	1a\	Do-
=34-	=34-	=34-	=34-	=34-	=34-	=34-
!LO:TX:t=P:problem=kreska pseudotaktowa	!	!	!	!	!	!
1r	.	2.B-\	Do-	0ryy	.	.
!	!	!	!	!	!LO:TX:t=P:problem=kreska pseudotaktowa	!
.	.	.	.	.	2g/	-mi-
.	.	4B-\	-mi-	.	.	.
!	!	!LO:TX:t=P:problem=kreska pseudotaktowa	!	!	!	!
2r	.	1A	-ne	.	2a\	-ne
!LO:TX:t=P:problem=kreska pseudotaktowa	!	!	!	!	!	!
2D/	Vi-	.	.	.	2a\	Vi-
=35-	=35-	=35-	=35-	=35-	=35-	=35-
2C/	-ui-	2r	.	0ryy	2a\	-ui-
4BB-/	-fi-	2d\	Vi-	.	4g/	-fi-
!LO:TX:t=P:problem=kreska pseudotaktowa	!	!	!	!	!LO:TX:t=P:problem=kreska pseudotaktowa	!
4BB-/	-ca	.	.	.	4g/	-ca
2AA/	me	2c\	-ui-	.	2a\	me
!LO:TX:t=P:problem=kreska pseudotaktowa	!	!	!	!	!	!
2AA/	ſe-	4c\	-fi-	.	4r	.
!	!	!LO:TX:t=P:problem=kreska pseudotaktowa	!	!	!LO:TX:t=P:problem=kreska pseudotaktowa	!
.	.	4c\	-ca	.	4a\	Vi-
=36-	=36-	=36-	=36-	=36-	=36-	=36-
2.BB-/	-cun-	1B-	me	0ryy	2g/	-ui-
.	.	.	.	.	4f/	-fi-
4BB-/	-dum	.	.	.	4f/	-ca
2C/	Ver-	2G/	ſe-	.	2e/	me
*custos:D	*	*	*	*	*	*
!LO:TX:t=P:problem=kreska pseudotaktowa	!	!	!	!	!LO:TX:t=P:problem=kreska pseudotaktowa	!
2C/	-bum	2.A/	-cun-	.	2e/	ſe-
!LO:PB:g=original	!	!	!	!	!	!
=37-	=37-	=37-	=37-	=37-	=37-	=37-
1D	tu-	.	.	0ryy	2.f/	-cun-
.	.	4A/	-du(m)	.	.	.
!	!	!LO:TX:t=P::problem=kreska pseudotaktowa&colon;między nutą a kropką	!	!	!	!
.	.	2.B-\	Ver-	.	.	.
.	.	.	.	.	4f/	-dum
!LO:TX:t=P:problem=kreska pseudotaktowa	!	!	!	!	!	!
1E-X	-um	.	.	.	4g/	Ver-
.	.	4B-\	-bu(m)	.	4g/	-bu(m)
.	.	4c\	tu-	.	1g/	tu-
!	!	!LO:TX:t=P:problem=kreska pseudotaktowa	!	!	!	!
.	.	4c\	-u(m)	.	.	.
=38-	=38-	=38-	=38-	=38-	=38-	=38-
2.D/	Do-	2.d\	D(o-	0ryy	.	.
!	!	!	!	!	!LO:TX:t=P:problem=kreska pseudotaktowa	!
.	.	.	.	.	2f#X/	.
4D/	-mi-	4d\	-mi)-	.	.	.
!	!	!	!	!	!LO:TX:t=P:problem=kreska pseudotaktowa	!
2GG/	-ne,	2d\	-ne,	.	1g	-um
!LO:TX:t=P:problem=kreska pseudotaktowa	!	!LO:TX:t=P:problem=kreska pseudotaktowa	!	!	!	!
2GG/	ſe-	2D/	ſe-	.	.	.
=39-	=39-	=39-	=39-	=39-	=39-	=39-
2.C/	-cun-	2.E/	-cun-	0ryy	2r	.
.	.	.	.	.	2g/	ſe-
*	*	*custos:F#	*	*	*	*
4C/	-du(m)	4E/	-du(m)	.	.	.
!	!	!LO:LB:g=original	!	!	!	!
2AA/	Ver-	2F#X/	Ver-	.	2.a\	-cun-
!LO:TX:t=P:problem=kreska pseudotaktowa	!	!LO:TX:t=P:problem=kreska pseudotaktowa	!	!	!	!
2AA/	-bu(m)	2F#X/	-bu(m)	.	.	.
!	!	!	!	!	!LO:TX:t=P:problem=kreska pseudotaktowa	!
.	.	.	.	.	4a\	-du(m)
=40-	=40-	=40-	=40-	=40-	=40-	=40-
!	!	!	!	!	!LO:N:acc=#	!
1GG	tu-	1G	tu-	0ryy	2bn\	Ver-
.	.	.	.	.	2b\	-bu(m)
1C	-um	2G/	-u(m)	.	2.cc\	tu-
.	.	2.A/	Do-	.	.	.
!	!	!	!	!	!LO:TX:t=P:problem=kreska pseudotaktowa	!
.	.	.	.	.	4b#y\	.
=41-	=41-	=41-	=41-	=41-	=41-	=41-
*lig	*	*	*	*	*	*
*	*	*	*	*	*custos:b-	*
1D	Do-	.	.	0ryy	2a\	-um
.	.	4G/	.	.	.	.
!	!	!LO:TX:t=P:problem=kreska pseudotaktowa	!	!	!LO:LB:g=original	!
.	.	2Fny/	.	.	2.b-y\	Do-
!LO:TX:t=P:problem=kreska pseudotaktowa	!	!	!	!	!	!
1E-X	.	2.G/	.	.	.	.
.	.	.	.	.	4a\	.
.	.	.	.	.	1g\	.
.	.	4A/	.	.	.	.
*Xlig	*	*	*	*	*	*
=42-	=42-	=42-	=42-	=42-	=42-	=42-
1.D	.	2B-\	.	0ryy	.	.
.	.	4A/	.	.	4f#X/	.
!	!	!LO:TX:t=P:problem=kreska pseudotaktowa	!	!	!LO:TX:t=P:problem=kreska pseudotaktowa	!
.	.	4G/	.	.	4e/	.
.	.	2.A/	.	.	2f#X/	-mi-
2D/	-mi-	.	.	.	2f#X/	-ne
!	!	!LO:TX:t=P:problem=kreska pseudotaktowa	!	!	!	!
.	.	4A/	-mi-	.	.	.
=43-	=43-	=43-	=43-	=43-	=43-	=43-
*	*	*	*	*	*	*ij
!LO:TX:t=P:problem=kreska pseudotaktowa	!	!LO:TX:t=P:problem=kreska pseudotaktowa	!	!	!	!
1GG	-ne	1G	-ne	0ryy	[<0g	Do-
2r	.	2r	.	.	.	.
*	*ij	*	*ij	*	*	*
!	!	!LO:N:acc=#	!	!	!	!
!	!	!LO:TX:a:t=P:problem=# above	!	!	!	!
2GG/	ſe-	2Bn\	ſe-	.	.	.
=44-	=44-	=44-	=44-	=44-	=44-	=44-
2.C/	-cun-	2.c\	-cun-	0ryy	0g_<	.
!LO:TX:t=P:problem=kreska pseudotaktowa	!	!LO:TX:t=P:problem=kreska pseudotaktowa	!	!	!	!
4C/	-du(m)	4c\	-du(m)	.	.	.
!LO:N:acc=#	!	!	!	!	!	!
2BBn/	Ver-	2.d\	Ver-	.	.	.
!LO:N:acc=#	!	!	!	!	!	!
2BBn/	-bu(m)	.	.	.	.	.
.	.	4d\	-bu(m)	.	.	.
=45-	=45-	=45-	=45-	=45-	=45-	=45-
4C/	tu-	1e-X	tu-	0ryy	0g]	.
4D/	.	.	.	.	.	.
4E-X\	.	.	.	.	.	.
!LO:TX:t=P:problem=kreska pseudotaktowa	!	!	!	!	!	!
4F\	.	.	.	.	.	.
!	!	!LO:TX:t=P:problem=kreska pseudotaktowa	!	!	!	!
1G	-um	1d	.	.	.	.
=46-	=46-	=46-	=46-	=46-	=46-	=46-
2C/	Do-	2c\	.	0ryy	0g;<	-mi-
!LO:TX:t=P:problem=kreska pseudotaktowa	!	!	!	!	!	!
!LO:N:acc=#	!	!	!	!	!	!
2BBn/	.	2d\	-u(m)	.	.	.
1.C	.	1.c	Do-	.	.	.
=47-	=47-	=47-	=47-	=47-	=47-	=47-
.	.	.	.	0ryy	0g;<	-ne
*	*	*	*	*	*	*Xij
2C/	-mi-	2c\	-mi-	.	.	.
!LO:N:vis=0	!	!LO:N:vis=0	!	!	!	!
!	!	!LO:N:acc=#	!	!	!	!
1GG;>	-ne	1Bn;<	-ne.	.	.	.
*	*Xij	*	*Xij	*	*	*
==	==	==	==	==	==	==
*-	*-	*-	*-	*-	*-	*-
!!!system-decoration: [(s1,s2,s3,s4)]
!!!RDF**kern: > = above
!!!RDF**kern: < = below
!!!RDF**kern: l = terminal long
!!!EED: Mateusz Mrugas
!!!EEV: 2021-03-19
!!!ENC: Mateusz Solarz
!!!END: 2021-03-03
!!!YEC: Copyright 2022 Narodowy Instytut Fryderyka Chopina (https://polishscores.org)
!!!YEM: Licence CC BY 4.0 (https://creativecommons.org/licenses/by/4.0)
